X:1
T:Title
%%score { ( 1 3 ) | ( 2 4 ) }
L:1/8
M:4/4
K:Eb
V:1 treble nm="Grand Piano"
V:3 treble 
V:2 bass 
V:4 bass 
V:1
 z4 z[Q:1/4=100] [B,GB][C_G=A][B,=GB] | [EGc]2 [EGB]2 z [B,GB][C_G=A][B,=GB] | %2
 [EGc]2 [EGB]2 z [B,GB][C_G=A][B,=GB] | [Gc]2 [GB]2 [Ge]2 G2 |[M:5/8] A- A3 z |[M:3/8] AGA | %6
[M:4/4] d2 d2 z AGA | [Gc]2 [Gc]2 z [GB][_GB][Gc] | d2 F2 F2 c2 |[M:5/8] [B,DB]- [B,DB]3 z | %10
[M:3/8] z3 |[M:4/4] z2 [B,GB]2 [FB]2 [EB]2 | A2 A2 ABcB | A2 [Ac]2 [GB]2 [FA]2 |[M:5/8] G2 G2 G | %15
[M:3/8] BcB |[M:4/4] G2 [Ge]2 [Fe]2 [Ee]2 | d2 d2 dB=AB | [df]2 [ce]2 [DBd]2 [E=Ac]2 | %19
[M:5/8] [DB]- [DB]3 z |[M:3/8] z3 |[M:4/4] z2 [B,GB]2 [FB]2 [EB]2 | A2 A2 ABcB | %23
 A2 [Ac]2 [GB]2 [FA]2 |[M:5/8] G2 G2 G |[M:3/8] BcB |[M:4/4] G2 [G_d]2 [Fd]2 [Ed]2 | c2 c2 cABc | %28
 B2 [GB]2 [Ac]2 [FA]2 |[M:5/8] [EG]- [EG]3 z |] %30
V:2
 z4 z E,E,E, | E,2 E,2 z E,E,E, | E,2 E,2 z E,E,E, | [E,E]2 [E,E]2 [E,B,]2 [E,B,E]2 | %4
[M:5/8][K:treble] [B,DF]- [B,DF]3 z |[M:3/8] [B,DF][B,_D=E][B,=DF] | %6
[M:4/4] [B,FA]2 [B,FA]2 z [B,DF][B,_D=E][B,=DF] | [E,E]2 [E,E]2 z [E,B,][E,B,][E,B,] | %8
 [F,B,F]2 [F,B,D]2 [F,=A,E]2 [F,A,E]2 |[M:5/8] B,,- B,,3 z |[M:3/8][K:treble] BcB | %11
[M:4/4] G2[K:bass] E,2 [E,A,]2 [E,G,]2 | [B,,F,]2 [B,,F,]2 [B,,F,]2 z2 | %13
 z2 [B,,B,]2 [B,,B,]2 [B,,B,]2 |[M:5/8] E-E- E3 |[M:3/8] z3 |[M:4/4] z2 [E,B,]2 [E,A,]2 [E,G,]2 | %17
 [B,,B,]2 [B,,B,]2 .[B,,B,]2 z2 | [F,B,]2 [F,C]2 F,2 F,2 |[M:5/8] B,- B,3 z | %20
[M:3/8][K:treble] BcB |[M:4/4] G2[K:bass] E,2 [E,A,]2 [E,G,]2 | [B,,F,]2 [B,,F,]2 [B,,F,]2 z2 | %23
 z2 [B,,B,]2 [B,,B,]2 [B,,B,]2 |[M:5/8] E-E- E3 |[M:3/8] z3 |[M:4/4] z2 [E,B,]2 [E,A,]2 [E,G,]2 | %27
 [A,,A,]2 [A,,A,]2 .[A,,A,]2 z2 | z2 [B,,B,]2 [B,,B,]2 [B,,B,]2 |[M:5/8] [E,B,]- [E,B,]3 z |] %30
V:3
 x8 | x8 | x8 | x8 |[M:5/8] x5 |[M:3/8] x3 |[M:4/4] x8 | x8 | x8 |[M:5/8] x5 |[M:3/8] x3 | %11
[M:4/4] x8 | D6 z2 | x8 |[M:5/8] x5 |[M:3/8] x3 |[M:4/4] x8 | F6 z2 | x8 |[M:5/8] x5 |[M:3/8] x3 | %21
[M:4/4] x8 | D6 z2 | x8 |[M:5/8] x5 |[M:3/8] x3 |[M:4/4] x8 | A6 z2 | x8 |[M:5/8] x5 |] %30
V:4
 x8 | x8 | x8 | x8 |[M:5/8][K:treble] x5 |[M:3/8] x3 |[M:4/4] x8 | x8 | x8 |[M:5/8] x5 | %10
[M:3/8][K:treble] x3 |[M:4/4] x2[K:bass] x6 | x8 | x8 |[M:5/8] [E,B,]2 [E,B,]2 [E,B,] |[M:3/8] x3 | %16
[M:4/4] x8 | x8 | x8 |[M:5/8] x5 |[M:3/8][K:treble] x3 |[M:4/4] x2[K:bass] x6 | x8 | x8 | %24
[M:5/8] [E,B,]2 [E,B,]2 [E,B,] |[M:3/8] x3 |[M:4/4] x8 | x8 | x8 |[M:5/8] x5 |] %30

